.local/share/icons/Gruvbox-Plus-Dark/panel/16/openbazaar-system-tray.svg

<svg xmlns="http://www.w3.org/2000/svg" width="16" height="16" version="1.1">
 <defs>
  <style id="current-color-scheme" type="text/css">
   .ColorScheme-Text { color:#ebdbb2; } .ColorScheme-Highlight { color:#458588; }
  </style>
 </defs>
 <path style="fill:currentColor;fill-rule:evenodd" class="ColorScheme-Text" d="M 8.000001,0 C 7.349091,1.267981 6.533596,2.638963 5.1855478,4.1894531 4.5914018,4.8734978 4.0040816,5.47239 3.4335947,6 l 2.5371093,0 4.058594,0 2.501953,0 C 11.992133,5.504585 11.436789,4.9427965 10.871095,4.2988281 9.478569,2.7158767 8.627623,1.2758465 8.000001,0 Z m 1.552734,0.7753906 c 0.534717,0.9017938 1.197957,1.8740482 2.06836,2.8632813 C 12.469363,4.6043123 13.290419,5.373541 14.056642,6 L 14.503907,6 13.062501,1.9980469 C 12.00073,2.0200469 10.782743,1.5333781 9.994142,1.0800781 9.833065,0.9854951 9.694113,0.8793889 9.552735,0.7753906 Z M 6.400392,0.8515626 C 5.4084175,1.4647032 4.0407012,2.0179809 2.9414071,2.0019532 c 0,0 -0.9129387,2.5529544 -1.4335937,3.9980468 L 1.9179697,6 C 2.7123307,5.339191 3.5611324,4.5331778 4.4296884,3.5332031 5.2339204,2.6081956 5.8730195,1.7018504 6.400392,0.8515625 Z M 1.3046884,7 C 1.2535274,6.999749 1.2031431,7.01587 1.158204,7.04687 1.149464,7.05347 1.140988,7.06066 1.132813,7.06835 1.124733,7.07505 1.116915,7.08221 1.109376,7.08984 1.062086,7.14022 1.028022,7.207665 1.01172,7.283199 1.00666,7.306839 1.00339,7.331039 1.00195,7.355469 l 0,0.002 0,0.002 C 1.00083,7.371789 1.00018,7.384179 1,7.396579 l 0,0.002 c 6.98e-4,0.025 0.00331,0.04986 0.00781,0.07422 l 0.00195,0.0059 0.1777344,0.919922 0.058594,0.308593 c 0.00751,0.03718 0.019361,0.07273 0.035156,0.105469 0.015825,0.03354 0.035582,0.06384 0.058594,0.08984 0.015061,0.01699 0.031417,0.03204 0.048828,0.04492 0.00824,0.0064 0.016712,0.01223 0.025391,0.01758 0.039824,0.02318 0.083131,0.03517 0.1269531,0.03516 l 0.2558594,0 3.8457031,-0.01172 c 0.00456,1.3e-4 0.00912,1.3e-4 0.013672,0 l 0.458984,0 c 0.01038,0.0013 0.02081,0.002 0.03125,0.002 l 0.01172,-0.002 0.271485,0 1.570312,0 1.570312,0 0.271485,0 c 0.01431,0.0013 0.02866,0.0013 0.04297,0 l 0.458984,0 c 0.0046,1.3e-4 0.0091,1.3e-4 0.01367,0 L 14.203126,9 l 0.002,0 0.253906,0 c 0.07141,6.2e-5 0.140552,-0.03175 0.195313,-0.08984 l 0,-0.002 c 0.04908,-0.05209 0.08394,-0.122492 0.09961,-0.201172 l 0.06055,-0.308593 0.177735,-0.919922 c 0.0024,-0.01224 0.0044,-0.02463 0.0059,-0.03711 l 0,-0.002 c 0.0026,-0.02525 0.0033,-0.05076 0.002,-0.07617 -0.0035,-0.07731 -0.02527,-0.151498 -0.0625,-0.21289 -0.01276,-0.02069 -0.02716,-0.03967 -0.04297,-0.05664 -0.0069,-0.0082 -0.01404,-0.01605 -0.02148,-0.02344 l -0.002,0 c -0.0064,-0.0055 -0.01287,-0.01073 -0.01953,-0.01562 l -0.0059,-0.0059 c -0.0083,-0.0057 -0.01674,-0.01092 -0.02539,-0.01563 l -0.002,0 c -0.0089,-0.0051 -0.01806,-0.0097 -0.02734,-0.01367 l -0.002,0 c -0.009,-0.0038 -0.01811,-0.0071 -0.02734,-0.0098 l -0.002,0 c -0.01923,-0.0057 -0.03886,-0.0089 -0.05859,-0.0098 l -0.002,0 -0.002,0 -4.667969,0 -4.058594,0 z m 4.7226566,2.984375 0.08594,0.0039 -0.4277346,0 c -0.02356,6.72e-4 -0.046762,6.72e-4 -0.070312,0 l -3.4316406,0.0098 C 2.4236496,11.808204 2.6423588,14.998376 3.8730478,15 l 1.5898437,0 -1.4492187,-2.507812 c -0.02309,-0.04 -0.015712,-0.09475 0.017578,-0.123047 l 2.0312502,-1.72461 c 0.03473,-0.02954 0.406631,-0.344916 0.773437,-0.65625 l -0.40625,0 -0.271484,0 0.08789,-0.0039 c -0.07296,0.0065 -0.145794,0.0065 -0.21875,0 z m 3.726562,0 0.08789,0.0039 -0.271485,0 -0.40625,0 c 0.366807,0.311334 0.738709,0.626714 0.773438,0.65625 l 2.03125,1.72461 c 0.03328,0.0283 0.04067,0.08304 0.01758,0.123047 L 10.53711,15 l 1.582032,0 c 1.222961,0 1.453176,-3.191325 1.697265,-5.001953 l -3.429687,-0.0098 c -0.01337,3.81e-4 -0.02765,5.2e-5 -0.04102,0 l -0.458984,0 0.08594,-0.0039 c -0.07296,0.0065 -0.145794,0.0065 -0.21875,0 z"/>
 <path style="opacity:0.3;fill:currentColor;fill-rule:evenodd" class="ColorScheme-Text" d="m 7.57773,10.000005 -1.691407,3.996094 4.226563,0 -1.689453,-3.996094 -0.845703,0 z"/>
</svg>

<svg width="16" height="16" version="1.1" xmlns="http://www.w3.org/2000/svg">
  <defs>
    <style id="current-color-scheme" type="text/css">.ColorScheme-Text { color:#ebdbb2; } .ColorScheme-Highlight { color:#458588; } .ColorScheme-NeutralText { color:#fe8019; } .ColorScheme-PositiveText { color:#689d6a; } .ColorScheme-NegativeText { color:#fb4934; }</style>
  </defs>
  <path class="ColorScheme-Text" d="m7.58 10-1.69 4h4.23l-1.69-4h-0.85z" fill="currentColor" opacity=".3"/>
  <path class="ColorScheme-Text" d="m1.503 7c-0.3769 6e-4 -0.5653 0.2974-0.4844 0.6211l0.25 1c0.0556 0.2224 0.2552 0.3786 0.4844 0.3789h12.5c0.229-5e-4 0.428-0.1567 0.484-0.3789l0.25-1c0.079-0.3152-0.159-0.6203-0.484-0.6211zm6.497-7c-0.65 1.27-1.47 2.64-2.81 4.19-0.6 0.68-1.19 1.28-1.76 1.81h9.1c-0.54-0.5-1.09-1.06-1.66-1.7-1.39-1.58-2.24-3.02-2.87-4.3zm1.55 0.78c0.54 0.9 1.2 1.87 2.07 2.86 0.85 0.96 1.67 1.73 2.44 2.36h0.44l-1.44-4c-1.06 0.02-2.28-0.47-3.07-0.92-0.16-0.09-0.3-0.2-0.44-0.3zm-3.15 0.07c-0.99 0.61-2.36 1.17-3.46 1.15 0 0-0.91 2.55-1.43 4h0.41c0.79-0.66 1.64-1.47 2.51-2.47 0.8-0.92 1.44-1.83 1.97-2.68zm-4.22 9.15c0.24 1.81 0.46 5 1.69 5h1.59l-1.45-2.51c-0.02-0.04-0.01-0.09 0.02-0.12l2.81-2.38zm6.98-0.01 2.81 2.38c0.03 0.03 0.04 0.08 0.02 0.12l-1.45 2.51h1.58c1.22 0 1.45-3.19 1.7-5z" fill="currentColor"/>
</svg>
